communes/332.svg

<?xml version="1.0" encoding="UTF-8" standalone="no"?>
<svg
   xmlns:dc="http://purl.org/dc/elements/1.1/"
   xmlns:cc="http://creativecommons.org/ns#"
   xmlns:rdf="http://www.w3.org/1999/02/22-rdf-syntax-ns#"
   xmlns:svg="http://www.w3.org/2000/svg"
   xmlns="http://www.w3.org/2000/svg"
   xmlns:xlink="http://www.w3.org/1999/xlink"
   xmlns:sodipodi="http://sodipodi.sourceforge.net/DTD/sodipodi-0.dtd"
   xmlns:inkscape="http://www.inkscape.org/namespaces/inkscape"
   height="763"
   width="603"
   version="1.0"
   id="svg20"
   sodipodi:version="0.32"
   inkscape:version="0.46"
   sodipodi:docname="Madiswil-coat of arms.svg"
   sodipodi:docbase="C:\Users\Camilo\Documents\Escudos de Suiza"
   inkscape:output_extension="org.inkscape.output.svg.inkscape">
  <metadata
     id="metadata31">
    <rdf:RDF>
      <cc:Work
         rdf:about="">
        <dc:format>image/svg+xml</dc:format>
        <dc:type
           rdf:resource="http://purl.org/dc/dcmitype/StillImage" />
        <dc:date>23-SEP-2011</dc:date>
        <dc:creator>
          <cc:Agent>
            <dc:title>Aliman5040</dc:title>
          </cc:Agent>
        </dc:creator>
        <cc:license
           rdf:resource="http://creativecommons.org/licenses/by-sa/3.0/" />
        <dc:coverage />
        <dc:description />
        <dc:subject>
          <rdf:Bag />
        </dc:subject>
        <dc:language />
        <dc:title>Wappen Gemeinde Madiswil</dc:title>
      </cc:Work>
      <cc:License
         rdf:about="http://creativecommons.org/licenses/by-sa/3.0/">
        <cc:permits
           rdf:resource="http://creativecommons.org/ns#Reproduction" />
        <cc:permits
           rdf:resource="http://creativecommons.org/ns#Distribution" />
        <cc:requires
           rdf:resource="http://creativecommons.org/ns#Notice" />
        <cc:requires
           rdf:resource="http://creativecommons.org/ns#Attribution" />
        <cc:permits
           rdf:resource="http://creativecommons.org/ns#DerivativeWorks" />
        <cc:requires
           rdf:resource="http://creativecommons.org/ns#ShareAlike" />
      </cc:License>
    </rdf:RDF>
  </metadata>
  <defs
     id="defs29">
    <inkscape:perspective
       sodipodi:type="inkscape:persp3d"
       inkscape:vp_x="0 : 381.5 : 1"
       inkscape:vp_y="0 : 1000 : 0"
       inkscape:vp_z="603 : 381.5 : 1"
       inkscape:persp3d-origin="301.5 : 254.33333 : 1"
       id="perspective21" />
    <linearGradient
       id="linearGradient2893">
      <stop
         style="stop-color:#ffffff;stop-opacity:0.3137255;"
         offset="0"
         id="stop2895" />
      <stop
         id="stop2897"
         offset="0.19"
         style="stop-color:#ffffff;stop-opacity:0.25098041;" />
      <stop
         style="stop-color:#6b6b6b;stop-opacity:0.1254902;"
         offset="0.60000002"
         id="stop2901" />
      <stop
         style="stop-color:#000000;stop-opacity:0.1254902;"
         offset="1"
         id="stop2899" />
    </linearGradient>
    <radialGradient
       inkscape:collect="always"
       xlink:href="#linearGradient2893"
       id="radialGradient3236"
       gradientUnits="userSpaceOnUse"
       gradientTransform="matrix(1.215027,1.531577e-24,1.464684e-23,1.266667,-839.1924,-490.4894)"
       cx="858.04236"
       cy="579.93323"
       fx="858.04236"
       fy="579.93323"
       r="300" />
    <inkscape:perspective
       id="perspective2460"
       inkscape:persp3d-origin="372.04724 : 350.78739 : 1"
       inkscape:vp_z="744.09448 : 526.18109 : 1"
       inkscape:vp_y="0 : 1000 : 0"
       inkscape:vp_x="0 : 526.18109 : 1"
       sodipodi:type="inkscape:persp3d" />
  </defs>
  <sodipodi:namedview
     inkscape:window-height="720"
     inkscape:window-width="1280"
     inkscape:pageshadow="2"
     inkscape:pageopacity="0.0"
     guidetolerance="10.0"
     gridtolerance="10.0"
     objecttolerance="10.0"
     borderopacity="1.0"
     bordercolor="#666666"
     pagecolor="#ffffff"
     id="base"
     inkscape:zoom="0.36864408"
     inkscape:cx="163.14322"
     inkscape:cy="266.68353"
     inkscape:window-x="-8"
     inkscape:window-y="-8"
     inkscape:current-layer="layer2"
     showgrid="true"
     showguides="true">
    <inkscape:grid
       type="xygrid"
       id="grid2394"
       visible="true"
       enabled="true" />
  </sodipodi:namedview>
  <g
     inkscape:groupmode="layer"
     id="layer1"
     inkscape:label="Fond écu"
     style="display:inline"
     sodipodi:insensitive="true">
    <path
       id="path1899"
       d="M 1.5,1.49998 L 1.5,460.3679 C 1.5,626.6785 135.81456,761.5 301.49999,761.5 C 467.18543,761.5 601.5,626.6785 601.5,460.3679 L 601.5,1.49998 L 1.5,1.49998 z"
       style="fill:#5ab532;fill-opacity:1" />
  </g>
  <g
     inkscape:groupmode="layer"
     id="layer2"
     inkscape:label="Meubles"
     style="display:inline"
     sodipodi:insensitive="true">
    <g
       id="g3283"
       transform="matrix(3.1213053,0,0,3.1213053,-2033.0986,-1629.1351)">
      <path
         sodipodi:nodetypes="csscccccccccccccccccccccccccccccccccccccccccccccccccccccccccccccccccccccccccccccccccccccccccccccscccccsccccccccccccccccc"
         id="path2466"
         d="M 783.54575,721.28765 C 782,732 790.4921,729.80972 795,733 C 802.07406,738.00637 809.22528,740.94113 815,733 C 820.21493,725.82868 807,728 801,719 C 797,723 790,724 783.54575,721.28765 C 790,724 797,723 801,719 C 794.57386,710.16989 791.96742,698.30108 788,688 C 784,691 776,693 769,692 C 776,693 784,691 788,688 L 787,684 C 782,687 775,689 769,688 C 775,689 782,687 787,684 C 789,674 786,665 783,656 C 786,665 789,674 787,684 C 791,682 795,673 792,669 L 783,656 L 777,648 L 773,649 L 773,649 C 781,661 782,675 782,686 C 782,675 781,661 773,649 L 773,649 L 777,648 C 782,647 775,642 773,639 C 795,640 800,633 800,623 L 789,629 L 771,636 L 773,639 L 771,636 L 789,629 L 800,623 L 799,602 L 789,629 L 799,602 C 798,594 796,580 791,576 L 789,629 L 791,576 C 787,578 783,586 781,591 L 777,602 L 772,621 L 780,623 L 772,621 L 777,628 L 772,621 L 765,624 L 772,621 L 777,602 L 763,622 L 777,602 L 781,591 L 778,582 L 781,591 C 783,586 787,578 791,576 C 786.69541,572.52202 782.00172,569.498 776,568 L 758,563 C 750.89933,562.52794 745,562 737,564 C 721.0365,568.40633 706,579 694,587 L 698,600 L 707,596 L 704,590 L 707,596 L 708,587 L 707,596 C 716,584 726,574 737,564 C 726,574 716,584 707,596 L 739,587 L 707,596 L 698,600 L 699,603 L 731,592 L 699,603 C 710.65976,608.55914 723.97463,601.81128 735,593 C 744,581 744,571 737,564 C 744,571 744,581 735,593 L 729,616 L 735,593 C 729,599 717.90097,612.9942 726,615 L 749,622 L 726,615 C 712,638 710,636 720,640 C 724,635 726,632 728,627 C 726,632 724,635 720,640 C 706.71271,657.91645 697.03064,673.9162 706,680 C 707,675 709,670 711,666 C 709,670 707,675 706,680 C 708,682 710,683 712,684 L 715,668 L 712,684 L 708.62126,682.24252 L 708,686 C 714,691 721,692 727,691 C 721,692 714,691 708,686 C 705.99811,699.24763 703.70168,712.1271 695,717 C 700,721 706,720 711,719 C 706,720 700,721 695,717 C 682,725 676.43917,721.57567 682,730 C 687.44496,736.70314 694.09536,734.24964 700,730 C 706.50439,725.31871 712,728 711,719 C 715.30364,707.10186 727.62795,703.96186 727,691 L 727,687 C 721,687 717,686.55697 712,684 C 717,686.55697 721,687 727,687 C 743.45135,688.26549 739,686 743,674 C 744.91437,668.2569 747,660 749,649 C 739,648 729,644 720,640 C 729,644 739,648 749,649 L 755,650 L 758,667.70539 L 763,687 L 758,667 L 755,650 C 760,651 768,650 773,649 C 768,650 760,651 755,650 L 749,649 C 751.24011,663.48164 750,685 763,687 L 769,688 C 769,678 765,672 758,667 C 765,672 768.7528,678.04682 769,688 L 769,692 C 770,704 784,711 783.54575,721.28765 z"
         style="opacity:1;fill:#ffffff;fill-opacity:1;fill-rule:evenodd;stroke:#000000;stroke-width:1;stroke-linecap:butt;stroke-linejoin:miter;stroke-miterlimit:4;stroke-dasharray:none;stroke-opacity:1" />
      <path
         sodipodi:nodetypes="ccsscc"
         id="path3238"
         d="M 754,570 C 753.74283,574.86164 756.22975,578.27053 760,581 C 762,589 759.35115,594.18521 757.30127,598 C 754.83518,602.58934 758,603 760,599 C 763.2249,592.55019 765,587 764,582 C 768.36333,582.26888 772.77485,581.05717 775,578"
         style="opacity:1;fill:none;fill-opacity:1;fill-rule:evenodd;stroke:#000000;stroke-width:1;stroke-linecap:butt;stroke-linejoin:miter;stroke-miterlimit:4;stroke-dasharray:none;stroke-opacity:1" />
      <g
         id="g3270">
        <g
           id="g3266">
          <path
             sodipodi:nodetypes="cczzzzccc"
             id="path3240"
             d="M 776,721 C 750,668 725,668 677,620 L 685,618 C 687,617.5 686.96844,609.85344 682,611 L 656,617 C 653,617.69231 658.00896,624.44245 660,624 L 669,622 C 715,673 750,675.56958 768,723 L 776,721 z"
             style="opacity:1;fill:#fcef3c;fill-opacity:1;fill-rule:evenodd;stroke:#000000;stroke-width:1;stroke-linecap:butt;stroke-linejoin:miter;stroke-miterlimit:4;stroke-dasharray:none;stroke-opacity:1" />
          <path
             sodipodi:nodetypes="ccczzcc"
             id="path3242"
             d="M 734,677 C 735.28573,675.20954 736.59386,673.44597 739,673 C 737,667 735.85291,651.11902 739,644 L 725,649 C 721,650.42857 722.08614,652.83253 725,652 L 732,650 C 731.14502,658.84783 732.6303,667.9297 734,677 z"
             style="opacity:1;fill:#fcef3c;fill-opacity:1;fill-rule:evenodd;stroke:#000000;stroke-width:1;stroke-linecap:butt;stroke-linejoin:miter;stroke-miterlimit:4;stroke-dasharray:none;stroke-opacity:1" />
        </g>
        <path
           style="opacity:1;fill:#ffffff;fill-opacity:1;fill-rule:evenodd;stroke:#000000;stroke-width:1;stroke-linecap:butt;stroke-linejoin:miter;stroke-miterlimit:4;stroke-dasharray:none;stroke-opacity:1"
           d="M 776,721 L 779,728 L 783,737 L 775,740 C 747.69898,748.90223 720.10746,753.68898 691,737 C 721.91614,736.06836 749.01925,731.65525 766,718 L 768,723 L 771,730 L 775,740 L 771,730 L 779,728 L 771,730 L 768,723 L 776,721 z"
           id="path3244"
           sodipodi:nodetypes="cccccccccccccc" />
      </g>
      <path
         sodipodi:nodetypes="cscccccccccccccc"
         id="path3246"
         d="M 759,629 C 749.31026,633.82955 733.56085,639.587 733,643 C 732.08172,648.58807 735.76843,644.26325 738,644 L 737,654 C 737,655 740,656 740,654 L 740,649 L 740,654 C 740,656 743,655 743,654 L 743,649 L 743,654 C 743,655 746,654 746,653 L 746,648 L 746,653 C 750.25304,651.74796 748.01582,646.32862 749,642 C 753.56949,640.80565 758.06702,639.46737 762,637 L 759,629 z"
         style="opacity:1;fill:#fec3ac;fill-opacity:1;fill-rule:evenodd;stroke:#000000;stroke-width:1;stroke-linecap:butt;stroke-linejoin:miter;stroke-miterlimit:4;stroke-dasharray:none;stroke-opacity:1" />
      <path
         sodipodi:nodetypes="ccccccccc"
         id="path3248"
         d="M 687,593 C 677.98154,599.10107 668.319,602.62578 661,615.52468 L 668,614 L 670,611 C 666.09092,623.04543 673,618 675,611 L 676,607 L 675,611 C 681.1608,608.13788 686.01311,605.56339 691,603 L 687,593 z"
         style="opacity:1;fill:#fec3ac;fill-opacity:1;fill-rule:evenodd;stroke:#000000;stroke-width:1;stroke-linecap:butt;stroke-linejoin:miter;stroke-miterlimit:4;stroke-dasharray:none;stroke-opacity:1" />
      <path
         sodipodi:nodetypes="ccccc"
         id="path3250"
         d="M 766,623 C 763,617 755,622 757,627 L 762,641 C 765,648 775,644 772,637 L 766,623 z"
         style="opacity:1;fill:#ffffff;fill-opacity:1;fill-rule:evenodd;stroke:#000000;stroke-width:1;stroke-linecap:butt;stroke-linejoin:miter;stroke-miterlimit:4;stroke-dasharray:none;stroke-opacity:1" />
      <path
         sodipodi:nodetypes="ccccc"
         id="path3252"
         d="M 685,591 C 682,584 692,579 694,587 L 700,605 C 702,610 694,616 691,608 L 685,591 z"
         style="opacity:1;fill:#ffffff;fill-opacity:1;fill-rule:evenodd;stroke:#000000;stroke-width:1;stroke-linecap:butt;stroke-linejoin:miter;stroke-miterlimit:4;stroke-dasharray:none;stroke-opacity:1" />
      <g
         id="g3276">
        <path
           style="opacity:1;fill:#fec3ac;fill-opacity:1;fill-rule:evenodd;stroke:#000000;stroke-width:1;stroke-linecap:butt;stroke-linejoin:miter;stroke-miterlimit:4;stroke-dasharray:none;stroke-opacity:1"
           d="M 755,550 C 754,558 756,574 764,576 C 772,578 782,567 782,557 L 755,550 z"
           id="path3254"
           sodipodi:nodetypes="czcc" />
        <path
           style="opacity:1;fill:none;fill-opacity:1;fill-rule:evenodd;stroke:#000000;stroke-width:1;stroke-linecap:butt;stroke-linejoin:miter;stroke-miterlimit:4;stroke-dasharray:none;stroke-opacity:1"
           d="M 761,558 C 762,560 765,560 766,559"
           id="path3256"
           sodipodi:nodetypes="cc" />
        <path
           sodipodi:nodetypes="cc"
           id="path3258"
           d="M 772,560 C 773,562 776,562 777,561"
           style="opacity:1;fill:none;fill-opacity:1;fill-rule:evenodd;stroke:#000000;stroke-width:1;stroke-linecap:butt;stroke-linejoin:miter;stroke-miterlimit:4;stroke-dasharray:none;stroke-opacity:1" />
        <path
           style="opacity:1;fill:none;fill-opacity:1;fill-rule:evenodd;stroke:#000000;stroke-width:1;stroke-linecap:butt;stroke-linejoin:miter;stroke-miterlimit:4;stroke-dasharray:none;stroke-opacity:1"
           d="M 767,559 C 768,561 767,562 766.06407,563.13852 C 764.58421,564.93869 766,568 769,566"
           id="path3260"
           sodipodi:nodetypes="csc" />
        <path
           style="opacity:1;fill:none;fill-opacity:1;fill-rule:evenodd;stroke:#000000;stroke-width:1;stroke-linecap:butt;stroke-linejoin:miter;stroke-miterlimit:4;stroke-dasharray:none;stroke-opacity:1"
           d="M 763,569 C 764.91675,571.24808 766.93134,571.24593 769,570"
           id="path3262"
           sodipodi:nodetypes="cc" />
      </g>
      <path
         sodipodi:nodetypes="ccccccccccccscccccc"
         id="path3264"
         d="M 766,538.50862 C 773,542 779,541 783.46624,538 C 783,529.53376 765,528 760,533.53376 C 757,538 758,541 758,544 C 758,541 757,538 760,533.53376 C 754.1308,529.93414 742,523 742,534 C 768,555 800,552 804,564 C 800,552 768,555 742,534 L 742,542 C 742,554 769.33126,553.68895 783,558 C 790,559 798,561 804,564 C 798,561 790,559 783,558 C 787,564 788.71391,567.26772 796,570 C 804,573 804,566 804,564 C 804,562 799.00098,554.41951 784,546.46624 L 784.44899,553 L 784,546.46624 L 783.46624,538 C 779,541 773,542 766,538.50862 z"
         style="opacity:1;fill:#ffffff;fill-opacity:1;fill-rule:evenodd;stroke:#000000;stroke-width:1;stroke-linecap:butt;stroke-linejoin:miter;stroke-miterlimit:4;stroke-dasharray:none;stroke-opacity:1" />
    </g>
  </g>
  <g
     inkscape:groupmode="layer"
     id="layer3"
     inkscape:label="Reflet final"
     style="display:inline"
     sodipodi:insensitive="true">
    <path
       style="fill:url(#radialGradient3236);fill-opacity:1"
       d="M 1.5,1.5 L 1.5,460.3679 C 1.5,626.67854 135.81454,761.5 301.49993,761.5 C 467.1854,761.5 601.5,626.67854 601.5,460.3679 L 601.5,1.5 L 1.5,1.5 z "
       id="path2346" />
  </g>
  <g
     inkscape:groupmode="layer"
     id="layer4"
     inkscape:label="Contour final"
     style="display:inline"
     sodipodi:insensitive="true">
    <path
       style="fill:none;fill-opacity:1;stroke:#000000;stroke-width:3;stroke-miterlimit:4;stroke-dasharray:none;stroke-opacity:1"
       d="M 1.5,1.5 L 1.5,460.36794 C 1.5,626.67854 135.81454,761.5 301.49993,761.5 C 467.1854,761.5 601.5,626.67854 601.5,460.36794 L 601.5,1.5 L 1.5,1.5 z "
       id="path3239" />
  </g>
</svg>

<?xml version="1.0" encoding="UTF-8"?>
<svg version="1.0" viewBox="0 0 603 763" xmlns="http://www.w3.org/2000/svg" xmlns:cc="http://creativecommons.org/ns#" xmlns:dc="http://purl.org/dc/elements/1.1/" xmlns:rdf="http://www.w3.org/1999/02/22-rdf-syntax-ns#" xmlns:xlink="http://www.w3.org/1999/xlink">
<metadata>
<rdf:RDF>
<cc:Work rdf:about="">
<dc:format>image/svg+xml</dc:format>
<dc:type rdf:resource="http://purl.org/dc/dcmitype/StillImage"/>
<dc:date>23-SEP-2011</dc:date>
<dc:creator>
<cc:Agent>
<dc:title>Aliman5040</dc:title>
</cc:Agent>
</dc:creator>
<cc:license rdf:resource="http://creativecommons.org/licenses/by-sa/3.0/"/>
<dc:coverage/>
<dc:description/>
<dc:subject>
<rdf:Bag/>
</dc:subject>
<dc:language/>
<dc:title>Wappen Gemeinde Madiswil</dc:title>
</cc:Work>
<cc:License rdf:about="http://creativecommons.org/licenses/by-sa/3.0/">
<cc:permits rdf:resource="http://creativecommons.org/ns#Reproduction"/>
<cc:permits rdf:resource="http://creativecommons.org/ns#Distribution"/>
<cc:requires rdf:resource="http://creativecommons.org/ns#Notice"/>
<cc:requires rdf:resource="http://creativecommons.org/ns#Attribution"/>
<cc:permits rdf:resource="http://creativecommons.org/ns#DerivativeWorks"/>
<cc:requires rdf:resource="http://creativecommons.org/ns#ShareAlike"/>
</cc:License>
</rdf:RDF>
</metadata>
<defs>
<radialGradient id="a" cx="858.04" cy="579.93" r="300" gradientTransform="matrix(1.215 1.5316e-24 1.4647e-23 1.2667 -839.19 -490.49)" gradientUnits="userSpaceOnUse">
<stop stop-color="#fff" stop-opacity=".31373" offset="0"/>
<stop stop-color="#fff" stop-opacity=".25098" offset=".19"/>
<stop stop-color="#6b6b6b" stop-opacity=".12549" offset=".6"/>
<stop stop-opacity=".12549" offset="1"/>
</radialGradient>
</defs>
<g>
<path d="m1.5 1.5v458.87c0 166.31 134.31 301.13 300 301.13 165.69 0 300-134.82 300-301.13v-458.87h-600z" fill="#5ab532"/>
<g transform="matrix(3.1213 0 0 3.1213 -2033.1 -1629.1)" stroke="#000">
<path d="m783.55 721.29c-1.5458 10.712 6.9464 8.5221 11.454 11.712 7.0741 5.0064 14.225 7.9411 20 0 5.2149-7.1713-8-5-14-14-4 4-11 5-17.454 2.2876 6.4542 2.7124 13.454 1.7124 17.454-2.2876-6.4261-8.8301-9.0326-20.699-13-31-4 3-12 5-19 4 7 1 15-1 19-4l-1-4c-5 3-12 5-18 4 6 1 13-1 18-4 2-10-1-19-4-28 3 9 6 18 4 28 4-2 8-11 5-15l-9-13-6-8-4 1c8 12 9 26 9 37 0-11-1-25-9-37l4-1c5-1-2-6-4-9 22 1 27-6 27-16l-11 6-18 7 2 3-2-3 18-7 11-6-1-21-10 27 10-27c-1-8-3-22-8-26l-2 53 2-53c-4 2-8 10-10 15l-4 11-5 19 8 2-8-2 5 7-5-7-7 3 7-3 5-19-14 20 14-20 4-11-3-9 3 9c2-5 6-13 10-15-4.3046-3.478-8.9983-6.502-15-8l-18-5c-7.1007-0.47206-13-1-21 1-15.964 4.4063-31 15-43 23l4 13 9-4-3-6 3 6 1-9-1 9c9-12 19-22 30-32-11 10-21 20-30 32l32-9-32 9-9 4 1 3 32-11-32 11c11.66 5.5591 24.975-1.1887 36-10 9-12 9-22 2-29 7 7 7 17-2 29l-6 23 6-23c-6 6-17.099 19.994-9 22l23 7-23-7c-14 23-16 21-6 25 4-5 6-8 8-13-2 5-4 8-8 13-13.287 17.916-22.969 33.916-14 40 1-5 3-10 5-14-2 4-4 9-5 14 2 2 4 3 6 4l3-16-3 16-3.3787-1.7575-0.62126 3.7575c6 5 13 6 19 5-6 1-13 0-19-5-2.0019 13.248-4.2983 26.127-13 31 5 4 11 3 16 2-5 1-11 2-16-2-13 8-18.561 4.5757-13 13 5.445 6.7031 12.095 4.2496 18 0 6.5044-4.6813 12-2 11-11 4.3036-11.898 16.628-15.038 16-28v-4c-6 0-10-0.44303-15-3 5 2.557 9 3 15 3 16.451 1.2655 12-1 16-13 1.9144-5.7431 4-14 6-25-10-1-20-5-29-9 9 4 19 8 29 9l6 1 3 17.705 5 19.295-5-20-3-17c5 1 13 0 18-1-5 1-13 2-18 1l-6-1c2.2401 14.482 1 36 14 38l6 1c0-10-4-16-11-21 7 5 10.753 11.047 11 21v4c1 12 15 19 14.546 29.288z" fill="#fff" fill-rule="evenodd"/>
<path d="m754 570c-0.25717 4.8616 2.2298 8.2705 6 11 2 8-0.64885 13.185-2.6987 17-2.4661 4.5893 0.69873 5 2.6987 1 3.2249-6.4498 5-12 4-17 4.3633 0.26888 8.7748-0.94283 11-4" fill="none"/>
<g fill-rule="evenodd">
<g fill="#fcef3c">
<path d="m776 721c-26-53-51-53-99-101l8-2c2-0.5 1.9684-8.1466-3-7l-26 6c-3 0.69231 2.009 7.4424 4 7l9-2c46 51 81 53.57 99 101l8-2z"/>
<path d="m734 677c1.2857-1.7905 2.5939-3.554 5-4-2-6-3.1471-21.881 0-29l-14 5c-4 1.4286-2.9139 3.8325 0 3l7-2c-0.85498 8.8478 0.6303 17.93 2 27z"/>
</g>
<path d="m776 721 3 7 4 9-8 3c-27.301 8.9022-54.893 13.689-84-3 30.916-0.93164 58.019-5.3448 75-19l2 5 3 7 4 10-4-10 8-2-8 2-3-7 8-2z" fill="#fff"/>
</g>
<path d="m759 629c-9.6897 4.8296-25.439 10.587-26 14-0.91828 5.5881 2.7684 1.2632 5 1l-1 10c0 1 3 2 3 0v-5 5c0 2 3 1 3 0v-5 5c0 1 3 0 3-1v-5 5c4.253-1.252 2.0158-6.6714 3-11 4.5695-1.1944 9.067-2.5326 13-5l-3-8z" fill="#fec3ac" fill-rule="evenodd"/>
<path d="m687 593c-9.0185 6.1011-18.681 9.6258-26 22.525l7-1.5247 2-3c-3.9091 12.045 3 7 5 0l1-4-1 4c6.1608-2.8621 11.013-5.4366 16-8l-4-10z" fill="#fec3ac" fill-rule="evenodd"/>
<path d="m766 623c-3-6-11-1-9 4l5 14c3 7 13 3 10-4l-6-14z" fill="#fff" fill-rule="evenodd"/>
<path d="m685 591c-3-7 7-12 9-4l6 18c2 5-6 11-9 3l-6-17z" fill="#fff" fill-rule="evenodd"/>
<path d="m755 550c-1 8 1 24 9 26s18-9 18-19l-27-7z" fill="#fec3ac" fill-rule="evenodd"/>
<path d="m761 558c1 2 4 2 5 1" fill="none"/>
<path d="m772 560c1 2 4 2 5 1" fill="none"/>
<path d="m767 559c1 2 0 3-0.93593 4.1385-1.4799 1.8002-0.06407 4.8615 2.9359 2.8615" fill="none"/>
<path d="m763 569c1.9168 2.2481 3.9313 2.2459 6 1" fill="none"/>
<path d="m766 538.51c7 3.4914 13 2.4914 17.466-0.50862-0.46624-8.4662-18.466-10-23.466-4.4662-3 4.4662-2 7.4662-2 10.466 0-3-1-6 2-10.466-5.8692-3.5996-18-10.534-18 0.46624 26 21 58 18 62 30-4-12-36-9-62-30v8c0 12 27.331 11.689 41 16 7 1 15 3 21 6-6-3-14-5-21-6 4 6 5.7139 9.2677 13 12 8 3 8-4 8-6s-4.999-9.5805-20-17.534l0.44899 6.5338-0.44899-6.5338-0.53376-8.4662c-4.4662 3-10.466 4-17.466 0.50862z" fill="#fff" fill-rule="evenodd"/>
</g>
<path d="m1.5 1.5v458.87c0 166.31 134.31 301.13 300 301.13 165.69 0 300-134.82 300-301.13v-458.87h-600z" fill="url(#a)"/>
<path d="m1.5 1.5v458.87c0 166.31 134.31 301.13 300 301.13 165.69 0 300-134.82 300-301.13v-458.87h-600z" fill="none" stroke="#000" stroke-width="3"/>
</g>
</svg>
